assets/light/cards-light.svg

<svg id="Flat" xmlns="http://www.w3.org/2000/svg" viewBox="0 0 256 256">
  <path d="M184.00781,74h-144a14.01573,14.01573,0,0,0-14,14V200a14.01573,14.01573,0,0,0,14,14h144a14.01572,14.01572,0,0,0,14-14V88A14.01572,14.01572,0,0,0,184.00781,74Zm2,126a2.0026,2.0026,0,0,1-2,2h-144a2.0026,2.0026,0,0,1-2-2V88a2.0026,2.0026,0,0,1,2-2h144a2.0026,2.0026,0,0,1,2,2Zm44-144V176a6,6,0,0,1-12,0V56a2.0026,2.0026,0,0,0-2-2h-152a6,6,0,0,1,0-12h152A14.01572,14.01572,0,0,1,230.00781,56Z"/>
</svg>

<svg xmlns="http://www.w3.org/2000/svg" viewBox="0 0 256 256"><path d="M184,74H40A14,14,0,0,0,26,88V200a14,14,0,0,0,14,14H184a14,14,0,0,0,14-14V88A14,14,0,0,0,184,74Zm2,126a2,2,0,0,1-2,2H40a2,2,0,0,1-2-2V88a2,2,0,0,1,2-2H184a2,2,0,0,1,2,2ZM230,56V176a6,6,0,0,1-12,0V56a2,2,0,0,0-2-2H64a6,6,0,0,1,0-12H216A14,14,0,0,1,230,56Z"/></svg>
